!!!OTL@@DE: Mein Schatz ist a Reiter
!!!ONB: Neueres Volkslied
!!!OMD: M&auml;ssig bewegt
!!!LDT: 1823
!!!OCL: Erk, Ludwig
!!!GCO: Deutscher Liederschatz, Band 1
**kern	**kern	**kern
*staff3	*staff2	*staff1
*Ipiano	*Ipiano	*Ivox
*clefF4	*clefG2	*clefG2
*k[]	*k[]	*k[]
*C:	*C:	*C:
*M3/8	*M3/8	*M3/8
*MM96	*MM96	*MM96
8r	8e/ 8g/	8g/
=1	=1	=1
8C/L	8c/ 8e/L	8e/
8GG/	8e/ 8g/	8g/
8EE/J	8e/ 8g/J	8g/
=2	=2	=2
4CC/	8f/ 8a/L	8a/
.	8e/ 8g/	8g/
16EE/LL	8e/ 8g/J	8g/
16GG/JJ	.	.
=3	=3	=3
8C/L	8c/ 8e/L	8e/
8GG/	8e/ 8g/	8g/
8EE/J	8e/ 8g/J	8g/
=4	=4	=4
8CC/L	4e/ 4g/	4g/
8C/J	.	.
8C\ 8E\ 8G\	8g/	8g/
=5	=5	=5
8F/L	8A/ 8f/L	8f/
8C/	8f/ 8a/	8a/
8AA/J	8f/ 8a/J	8a/
=6	=6	=6
4FF/	8a/ 8cc/L	8cc\
.	8g/ 8b/	8b\
8AA/	8f/ 8a/J	8a/
=7	=7	=7
4C/	8f/ 8a/L	8a/
.	8e/ 8g/	8g/
16GG/LL	8e/ 8g/J	8g/
16EE/JJ	.	.
=8	=8	=8
8CC/L	4e/ 4g/	4g/
8C/J	.	.
8r	(16f/ 16a/LL	16a/
.	16e/) 16g/JJ	16g/
=9	=9	=9
16r	(8e/ 8g/L	8g/
(16GG/LL	.	.
16BB/	8d/) 8f/	8f/
16D/J	.	.
8G/J)	8d/ 8f/J	8f/
=10	=10	=10
16r	4d/ 4f/	4f/
(16GG/LL	.	.
16BB/	.	.
16D/J	.	.
8G/J)	(16e/ 16g/LL	16g/
.	16d/) 16f/JJ	16f/
=11	=11	=11
16r	(8d/ 8f/L	8f/
(16C\LL	.	.
16E\	8c/) 8e/	8e/
16G\	.	.
16c\	8e/J	8e/
16G\JJ	.	.
=12	=12	=12
16c\LL	4e/	4e/
16G\	.	.
16E\	.	.
16G\J	.	.
8C\J)	8e/ 8g/	8g/
=13	=13	=13
8GG\L	8g\L	8g/
8G\ 8B\ 8d\	8.ff\	8.ff\
8G\ 8B\ 8d\J	.	.
.	16g\Jk	16g/
=14	=14	=14
8GG\L	8g\L	8g/
8G\ 8c\ 8e\	8.ee\	8.ee\
8G\ 8c\ 8e\J	.	.
.	16g\ 16ee\Jk	16ee\
=15	=15	=15
8GG\L	(16g/ 16ee/LL	16ee\LL
.	(16f/) 16dd/JJ	16dd\JJ
8G\ 8B\	16f/ 16dd/LL	16dd\LL
.	16e/) 16cc/JJ	16cc\JJ
8G\ 8B\J	(16d/ 16b/LL	16b\LL
.	16f/) 16dd/JJ	16dd\JJ
=16	=16	=16
*	*^	*
8C\L	4cc/	8e\	4cc\
8G\ 8c\ 8e\	.	8r	.
8G\ 8c\ 8e\J	8gg/	8r	8r
*	*v	*v	*
=17	=17	=17
8GG\L	8gg\L	4.r
8G\ 8B\ 8d\	8.fff\	.
8G\ 8B\ 8d\J	.	.
.	16gg\Jk	.
=18	=18	=18
8GG\L	8gg\L	4.r
8G\ 8c\ 8e\	8.eee\	.
8G\ 8c\ 8e\J	.	.
.	16gg\ 16eee\Jk	.
=19	=19	=19
8GG\L	16gg\ (16eee\LL	4.r
.	(16ff\ 16ddd\JJ)	.
8G\ 8B\ 8f\	16ff\ 16ddd\LL	.
.	16ee\) &(16ccc\JJ&)	.
8G\ 8B\ 8f\J	16dd\ (16bb\LL	.
.	16ff\ 16ddd\JJ)	.
=20	=20	=20
8c\ 8e\L	4ee\ 4ccc\	4r
8C\J	.	.
==	==	==
*-	*-	*-
!!!ENC: Craig Stuart Sapp
!!!END: 2004/05/26/
!!!EFL: 075/651
